X: 4888
T: Braes Of Tulliemet, The
R: strathspey
M: 4/4
K: Gdorian
c|"Dm"A<d{e}d>c d>cd<f|"F"A<Fc>F d>Fc>F|"Dm"A<d{e}d>c d>cd<g|"F"{fg}f>c d/c/B/A/ "Gm"B<GG:|
^f|"Gm"{g^f}g>dg<b {ga}g>dg<b|"F"{fg}f>cf<a {fa}f>cf<a|"Gm"{ga}g>dg<b {gb}g>dg<b|"F"{fg}f>c d/c/B/A/ "Gm"B<GG>^f|
"Gm"{g^f}g>dg<b (3dga (3bag|"F"{fg}f>cf<a (3cfg (3agf|"G"g<dd>e "F"{fe}f>ga>g|"Dm"(3fed (3cBA "Gm"B<GG||

